files/resources/svgs/general/s-envelope-open.svg

<svg width="24" height="24" viewBox="0 0 24 24" fill="none" xmlns="http://www.w3.org/2000/svg">
<path d="M19.5 22.5002C21.1569 22.5002 22.5 21.1571 22.5 19.5002V11.3264L15.6212 15.3483L19.1056 17.2245C19.4703 17.4209 19.6067 17.8757 19.4104 18.2404C19.214 18.6051 18.7591 18.7416 18.3944 18.5452L12.7112 15.485C12.2672 15.2459 11.7328 15.2459 11.2889 15.485L5.60558 18.5452C5.24087 18.7416 4.78603 18.6051 4.58965 18.2404C4.39327 17.8757 4.52972 17.4209 4.89442 17.2245L8.37878 15.3483L1.5 11.3264V19.5002C1.5 21.1571 2.84315 22.5002 4.5 22.5002L19.5 22.5002Z" fill="#0F172A"/>
<path d="M1.5 9.58886V8.84412C1.5 7.74048 2.10597 6.72595 3.0777 6.20271L10.5777 2.16425C11.4656 1.68614 12.5344 1.68614 13.4223 2.16425L20.9223 6.20271C21.894 6.72595 22.5 7.74048 22.5 8.84413V9.58886L14.0742 14.5153L13.4223 14.1643C12.5344 13.6862 11.4656 13.6862 10.5777 14.1643L9.92585 14.5153L1.5 9.58886Z" fill="#0F172A"/>
</svg>

<svg xmlns="http://www.w3.org/2000/svg" viewBox="0 0 24 24" fill="currentColor" aria-hidden="true">
  <path d="M19.5 22.5a3 3 0 003-3v-8.174l-6.879 4.022 3.485 1.876a.75.75 0 01-.712 1.321l-5.683-3.06a1.5 1.5 0 00-1.422 0l-5.683 3.06a.75.75 0 01-.712-1.32l3.485-1.877L1.5 11.326V19.5a3 3 0 003 3h15z"/>
  <path d="M1.5 9.589v-.745a3 3 0 011.578-2.641l7.5-4.039a3 3 0 012.844 0l7.5 4.039A3 3 0 0122.5 8.844v.745l-8.426 4.926-.652-.35a3 3 0 00-2.844 0l-.652.35L1.5 9.59z"/>
</svg>
